plasma/desktoptheme/Materia-Color/icons/applications.svg

<?xml version="1.0" encoding="UTF-8"?>
<svg width="32" height="32" version="1.1" xmlns="http://www.w3.org/2000/svg">
 <defs id="materia">
  <style id="current-color-scheme" type="text/css">.ColorScheme-Background {color:#181818; } .ColorScheme-ButtonBackground { color:#343434; } .ColorScheme-Highlight { color:#4285f4; } .ColorScheme-Text { color:#dfdfdf; } .ColorScheme-ViewBackground { color:#242424; } .ColorScheme-NegativeText { color:#f44336; } .ColorScheme-PositiveText { color:#4caf50; } .ColorScheme-NeutralText { color:#ff9800; }</style>
 </defs>
 <g id="applications-other">
  <rect width="32" height="32" opacity=".001"/>
  <path class="ColorScheme-Text" d="m5 2c-1.662 0-3 1.338-3 3v6c0 1.662 1.338 3 3 3h6c1.662 0 3-1.338 3-3v-6c0-1.662-1.338-3-3-3h-6zm16 0c-1.662 0-3 1.338-3 3v6c0 1.662 1.338 3 3 3h6c1.662 0 3-1.338 3-3v-6c0-1.662-1.338-3-3-3h-6zm0 3h6v6h-6v-6zm-16 13c-1.662 0-3 1.338-3 3v6c0 1.662 1.338 3 3 3h6c1.662 0 3-1.338 3-3v-6c0-1.662-1.338-3-3-3h-6zm16 0c-1.662 0-3 1.338-3 3v6c0 1.662 1.338 3 3 3h6c1.662 0 3-1.338 3-3v-6c0-1.662-1.338-3-3-3h-6zm-16 3h6v6h-6v-6z" fill="currentColor"/>
 </g>
 <g id="22-22-applications-other" transform="translate(27,5)">
  <rect x="5" y="5" width="22" height="22" opacity=".001"/>
  <path class="ColorScheme-Text" transform="translate(-27,-5)" d="m37.5 14c-0.831 0-1.5 0.669-1.5 1.5v3c0 0.831 0.669 1.5 1.5 1.5h3c0.831 0 1.5-0.669 1.5-1.5v-3c0-0.831-0.669-1.5-1.5-1.5h-3zm8 0c-0.831 0-1.5 0.669-1.5 1.5v3c0 0.831 0.669 1.5 1.5 1.5h3c0.831 0 1.5-0.669 1.5-1.5v-3c0-0.831-0.669-1.5-1.5-1.5h-3zm0.5 2h2v2h-2v-2zm-8.5 6c-0.831 0-1.5 0.669-1.5 1.5v3c0 0.831 0.669 1.5 1.5 1.5h3c0.831 0 1.5-0.669 1.5-1.5v-3c0-0.831-0.669-1.5-1.5-1.5h-3zm8 0c-0.831 0-1.5 0.669-1.5 1.5v3c0 0.831 0.669 1.5 1.5 1.5h3c0.831 0 1.5-0.669 1.5-1.5v-3c0-0.831-0.669-1.5-1.5-1.5h-3zm-7.5 2h2v2h-2v-2z" fill="currentColor"/>
 </g>
</svg>

<svg xmlns="http://www.w3.org/2000/svg" width="32" height="32" version="1.1">
 <defs id="materia">
  <style id="current-color-scheme" type="text/css">
   .ColorScheme-Background {color:#181818; } .ColorScheme-ButtonBackground { color:#343434; } .ColorScheme-Highlight { color:#4285f4; } .ColorScheme-Text { color:#dfdfdf; } .ColorScheme-ViewBackground { color:#242424; } .ColorScheme-NegativeText { color:#f44336; } .ColorScheme-PositiveText { color:#4caf50; } .ColorScheme-NeutralText { color:#ff9800; }
  </style>
 </defs>
 <g id="applications-other">
  <rect style="opacity:0.001" width="32" height="32" x="0" y="0"/>
  <path style="fill:currentColor" class="ColorScheme-Text" d="M 5 2 C 3.3379999 2 2 3.3379999 2 5 L 2 11 C 2 12.662001 3.3379999 14 5 14 L 11 14 C 12.661998 14 14 12.662001 14 11 L 14 5 C 14 3.3379999 12.661998 2 11 2 L 5 2 z M 21 2 C 19.338 2 18 3.3379999 18 5 L 18 11 C 18 12.662001 19.338 14 21 14 L 27 14 C 28.661998 14 30 12.662001 30 11 L 30 5 C 30 3.3379999 28.661998 2 27 2 L 21 2 z M 21 5 L 27 5 L 27 11 L 21 11 L 21 5 z M 5 18 C 3.338002 18 2 19.338 2 21 L 2 27 C 2 28.662001 3.338002 30 5 30 L 11 30 C 12.662 30 14 28.662001 14 27 L 14 21 C 14 19.338 12.662 18 11 18 L 5 18 z M 21 18 C 19.338002 18 18 19.338 18 21 L 18 27 C 18 28.662001 19.338002 30 21 30 L 27 30 C 28.662 30 30 28.662001 30 27 L 30 21 C 30 19.338 28.662 18 27 18 L 21 18 z M 5 21 L 11 21 L 11 27 L 5 27 L 5 21 z"/>
 </g>
 <g id="22-22-applications-other" transform="translate(27,5)">
  <rect style="opacity:0.001" width="22" height="22" x="5" y="5"/>
  <path style="fill:currentColor" class="ColorScheme-Text" transform="translate(-27,-5)" d="M 37.5 14 C 36.669 14 36 14.669 36 15.5 L 36 18.5 C 36 19.331 36.669 20 37.5 20 L 40.5 20 C 41.331 20 42 19.331 42 18.5 L 42 15.5 C 42 14.669 41.331 14 40.5 14 L 37.5 14 z M 45.5 14 C 44.669 14 44 14.669 44 15.5 L 44 18.5 C 44 19.331 44.669 20 45.5 20 L 48.5 20 C 49.331 20 50 19.331 50 18.5 L 50 15.5 C 50 14.669 49.331 14 48.5 14 L 45.5 14 z M 46 16 L 48 16 L 48 18 L 46 18 L 46 16 z M 37.5 22 C 36.669 22 36 22.669 36 23.5 L 36 26.5 C 36 27.331 36.669 28 37.5 28 L 40.5 28 C 41.331 28 42 27.331 42 26.5 L 42 23.5 C 42 22.669 41.331 22 40.5 22 L 37.5 22 z M 45.5 22 C 44.669 22 44 22.669 44 23.5 L 44 26.5 C 44 27.331 44.669 28 45.5 28 L 48.5 28 C 49.331 28 50 27.331 50 26.5 L 50 23.5 C 50 22.669 49.331 22 48.5 22 L 45.5 22 z M 38 24 L 40 24 L 40 26 L 38 26 L 38 24 z"/>
 </g>
</svg>
